X: 7
T: the Royal Pair
R: reel
M: C|
L: 1/16
Z: 2010,2014 John Chambers <jc:trillian.mit.edu>
B: Longman ed. "Twenty Four Country Dances", p.28 London 1770
K: D
|: d4 fedc d2A2F2D2 | f4 agfe f2d2A2F2 | G2ba b2G2 F2ag a2d2 | cdef g2f2 f4 e4 :|
|: a4 AB=cA B2G2F2G2 | b4 BcdB c2A2^G2A2 | e4 Aceg f2c2d2G2 | F4 E4 D4 z4 :|
% - - - - - - - - - - - - - - - - - - - - - - - - -
%%begintext align
%% 1st and 2d Cu: right hands a Cross .| 1st Cu: lead down the middle and up again .|. Cross over
%% one Cu: :|. right and left at Top :|
%%endtext
% - - - - - - - - - - - - - - - - - - - - - - - - -
